X: 26781
T: Miller Of Droghan, The
R: reel
M: 4/4
K: Gmajor
|:"G" G2BG DGBG|"Em" EBef gedB|"G"G2BG DGBA|"C"GEGA "D"BdBA|
"G"G2BG DGBG|"Em" EBef gfed|"Bm" faef deBA|1 "C"GEGA "D"~B3A:|2 "C" GEGA "D" BA (3B^cd||
"Em" eE~E2 DEBE|"D" DEGA "Bm" ~B3A|"C" GE~E2 DEBE|"Bm"DEGA "G"BA (3B^cd|
"Em" eE~E2 DEBE|"Bm" DEGA BdBA|"C"GE~E2 "D" DEBE|"Em" DEGA "F#m" ~B3A||

